X:30
M:6/8
L:1/8
K:G
e/f/ | gdc BAG | FGA AFD | gdc BAG | FAA A2 e/f/ | gdc BAG | FGA AFD | BdB cAF | G[Gg][Gg] [G2g2] :|
K:Bb

